29f
albertroad.htmlalbertroad.htmlalbertroad.htmlalbertroad.htmlalbertroad.htmlalbertroad.htmlalbertroad.htmlalbertroad.htmlalbertroad.htmlFrom <I>Altan: The Red Crow</I>
albertroad.htmlalbertroad.html

T:Lady Montgomery
M:C|
L:1/8
R:reel
D:Altan: The Red Crow
Z:Devin McCabe
K:D
~F3A AFDE|F2EG FDDE|~F3A AFDE|1 FDEC D2DE:|2 F2EF D3c|
!d2AG FGAB|A2ed cdec|d2AG FGAB|AFGE FDDA|
!d2AG FGAB|A2ed cdec|d2AG ~F3G|AFGE FDDE||

%  ABC2Win Version 2.1 7/21/2000



albertroad.htmlalbertroad.htmlalbertroad.htmlalbertroad.htmlalbertroad.htmlalbertroad.html
0

